X: 1
T: Lees Of Luncartie
R: reel
M: 4/4
L: 1/8
K: Gmix
B|D>GB>G c>AB>G|A/A/A B>G c>AF<A|D>GB>G c>ABG|A/A/A d>c B>GG:|
^f|g>(dd>)e =f>g({fg}a)g|f>dTc>_B AFF>^f|g>(dd<)e g>a({ga}b)a|g>(dd>)e g/^f/g/a/ gb|
g<(dd>)e f>efa|f>dTc_B A<(FF) (e/f/|g>)ef>d e>cd>B|A<g^f<a g<(GG)||

